icon-svg/rooms-bedroom.svg

<svg xmlns="http://www.w3.org/2000/svg" fill="#44739e" viewBox="0 0 24 24"><path d="M26 16H6c-2.209 0-4 1.791-4 4v2c0 .553.447 1 1 1h1v1c0 1.104.896 2 2 2s2-.896 2-2v-1h16v1c0 1.104.896 2 2 2s2-.896 2-2v-1h1c.553 0 1-.447 1-1v-2c0-2.209-1.791-4-4-4M9 10h5c.553 0 1 .447 1 1s-.447 1-1 1H9c-.553 0-1-.447-1-1s.447-1 1-1m9 0h5c.553 0 1 .447 1 1s-.447 1-1 1h-5c-.553 0-1-.447-1-1s.447-1 1-1M7.009 14h17.982c.558 0 1.009-.451 1.009-1.009V8c0-1.104-.896-2-2-2H8c-1.104 0-2 .896-2 2v4.991C6 13.549 6.451 14 7.009 14"/></svg>

<?xml version="1.0" encoding="UTF-8"?>
<svg width="32px" height="32px" viewBox="0 0 32 32" fill="#44739e" version="1.1" xmlns="http://www.w3.org/2000/svg" xmlns:xlink="http://www.w3.org/1999/xlink">
            <path d="M26,16 L6,16 C3.791,16 2,17.791 2,20 L2,22 C2,22.553 2.447,23 3,23 L4,23 L4,24 C4,25.104 4.896,26 6,26 C7.104,26 8,25.104 8,24 L8,23 L24,23 L24,24 C24,25.104 24.896,26 26,26 C27.104,26 28,25.104 28,24 L28,23 L29,23 C29.553,23 30,22.553 30,22 L30,20 C30,17.791 28.209,16 26,16 M9,10 L14,10 C14.553,10 15,10.447 15,11 C15,11.553 14.553,12 14,12 L9,12 C8.447,12 8,11.553 8,11 C8,10.447 8.447,10 9,10 M18,10 L23,10 C23.553,10 24,10.447 24,11 C24,11.553 23.553,12 23,12 L18,12 C17.447,12 17,11.553 17,11 C17,10.447 17.447,10 18,10 M7.009,14 L24.991,14 C25.549,14 26,13.549 26,12.991 L26,8 C26,6.896 25.104,6 24,6 L8,6 C6.896,6 6,6.896 6,8 L6,12.991 C6,13.549 6.451,14 7.009,14"></path>
</svg>
